icons/folder-global.svg

<svg xmlns="http://www.w3.org/2000/svg" viewBox="0 0 16 16"><path id="folder" fill="#5c6bc0" d="m6.922 3.768-.644-.536A1 1 0 0 0 5.638 3H2a1 1 0 0 0-1 1v8a1 1 0 0 0 1 1h12a1 1 0 0 0 1-1V5a1 1 0 0 0-1-1H7.562a1 1 0 0 1-.64-.232"/><path id="motive" fill="#c5cae9" d="M11 5a5 5 0 1 0 5 5 5 5 0 0 0-5-5m2 1.541A4 4 0 0 1 15 10a4 4 0 0 1-.13 1H13l-1-1V9h-2V7h2v1h1zM13 8.5V9h1v-.5zm-5.94.826L9 10h2l1 1-1 1v2a4.005 4.005 0 0 1-4-4 4 4 0 0 1 .06-.674"/></svg>

<svg xmlns="http://www.w3.org/2000/svg" viewBox="0 0 16 16">
<path id="folder" fill="#5c6bc0" d="m6.922 3.768-.644-.536A1 1 0 0 0 5.638 3H2a1 1 0 0 0-1 1v8a1 1 0 0 0 1 1h12a1 1 0 0 0 1-1V5a1 1 0 0 0-1-1H7.562a1 1 0 0 1-.64-.232" />
<path id="motive" fill="#c5cae9" d="M 11 5 A 5 5 0 1 0 16 10 A 5 5 0 0 0 11 5 z M 13 6.5410156 A 4 4 0 0 1 15 10 A 4 4 0 0 1 14.869141 11 L 13 11 L 12 10 L 12 9 L 10 9 L 10 7 L 12 7 L 12 8 L 13 8 L 13 6.5410156 z M 13 8.5 L 13 9 L 14 9 L 14 8.5 L 13 8.5 z M 7.0605469 9.3261719 L 9 10 L 11 10 L 12 11 L 11 12 L 11 14 A 4.005 4.005 0 0 1 7 10 A 4 4 0 0 1 7.0605469 9.3261719 z" />
</svg>
